Public/img/Logo.svg

<svg width="192" height="31" viewBox="0 0 192 31" fill="none" xmlns="http://www.w3.org/2000/svg">
<path d="M184.281 23.68C182.98 23.68 181.828 23.392 180.825 22.816C179.844 22.2186 179.076 21.4186 178.521 20.416V30.176H174.233V6.59196H177.977V9.47196C178.617 8.49062 179.428 7.72262 180.409 7.16796C181.391 6.59196 182.511 6.30396 183.769 6.30396C184.9 6.30396 185.935 6.52796 186.873 6.97596C187.833 7.42396 188.665 8.05329 189.369 8.86396C190.073 9.65329 190.617 10.5706 191.001 11.616C191.407 12.64 191.609 13.7493 191.609 14.944C191.609 16.5653 191.289 18.0373 190.649 19.36C190.031 20.6826 189.167 21.7386 188.057 22.528C186.969 23.296 185.711 23.68 184.281 23.68ZM182.841 20.032C183.503 20.032 184.1 19.8933 184.633 19.616C185.167 19.3386 185.625 18.9653 186.009 18.496C186.415 18.0053 186.713 17.4613 186.905 16.864C187.119 16.2453 187.225 15.6053 187.225 14.944C187.225 14.24 187.108 13.5893 186.873 12.992C186.66 12.3946 186.34 11.872 185.913 11.424C185.487 10.9546 184.985 10.592 184.409 10.336C183.855 10.08 183.247 9.95196 182.585 9.95196C182.18 9.95196 181.764 10.0266 181.337 10.176C180.932 10.304 180.537 10.496 180.153 10.752C179.769 11.008 179.428 11.3066 179.129 11.648C178.852 11.9893 178.649 12.3626 178.521 12.768V16.704C178.777 17.3226 179.119 17.888 179.545 18.4C179.993 18.912 180.505 19.3173 181.081 19.616C181.657 19.8933 182.244 20.032 182.841 20.032Z" fill="#202020"/>
<path d="M164 23.68C162.699 23.68 161.547 23.392 160.544 22.816C159.563 22.2186 158.795 21.4186 158.24 20.416V30.176H153.952V6.59196H157.696V9.47196C158.336 8.49062 159.147 7.72262 160.128 7.16796C161.109 6.59196 162.229 6.30396 163.488 6.30396C164.619 6.30396 165.653 6.52796 166.592 6.97596C167.552 7.42396 168.384 8.05329 169.088 8.86396C169.792 9.65329 170.336 10.5706 170.72 11.616C171.125 12.64 171.328 13.7493 171.328 14.944C171.328 16.5653 171.008 18.0373 170.368 19.36C169.749 20.6826 168.885 21.7386 167.776 22.528C166.688 23.296 165.429 23.68 164 23.68ZM162.56 20.032C163.221 20.032 163.819 19.8933 164.352 19.616C164.885 19.3386 165.344 18.9653 165.728 18.496C166.133 18.0053 166.432 17.4613 166.624 16.864C166.837 16.2453 166.944 15.6053 166.944 14.944C166.944 14.24 166.827 13.5893 166.592 12.992C166.379 12.3946 166.059 11.872 165.632 11.424C165.205 10.9546 164.704 10.592 164.128 10.336C163.573 10.08 162.965 9.95196 162.304 9.95196C161.899 9.95196 161.483 10.0266 161.056 10.176C160.651 10.304 160.256 10.496 159.872 10.752C159.488 11.008 159.147 11.3066 158.848 11.648C158.571 11.9893 158.368 12.3626 158.24 12.768V16.704C158.496 17.3226 158.837 17.888 159.264 18.4C159.712 18.912 160.224 19.3173 160.8 19.616C161.376 19.8933 161.963 20.032 162.56 20.032Z" fill="#202020"/>
<path d="M139.044 0.640137H143.524L151.876 23.3601H147.332L145.22 17.6961H137.284L135.204 23.3601H130.66L139.044 0.640137ZM144.42 14.5921L141.284 5.21614L138.02 14.5921H144.42Z" fill="#202020"/>
<path d="M131.499 10.3042C130.197 10.3042 129.035 10.5602 128.011 11.0722C126.987 11.5628 126.251 12.2775 125.803 13.2162V23.3602H121.515V6.59216H125.451V10.1762C126.048 9.02416 126.805 8.1175 127.723 7.45616C128.64 6.79483 129.611 6.43216 130.635 6.36816C130.869 6.36816 131.051 6.36816 131.179 6.36816C131.307 6.36816 131.413 6.37883 131.499 6.40016V10.3042Z" fill="#F5F4F4"/>
<path d="M110.135 23.68C108.791 23.68 107.575 23.456 106.487 23.008C105.399 22.5386 104.471 21.9093 103.703 21.12C102.935 20.3093 102.337 19.392 101.911 18.368C101.505 17.3226 101.303 16.224 101.303 15.072C101.303 13.472 101.655 12.0106 102.359 10.688C103.084 9.36529 104.108 8.30929 105.431 7.51996C106.775 6.70929 108.353 6.30396 110.167 6.30396C112.001 6.30396 113.569 6.70929 114.871 7.51996C116.172 8.30929 117.164 9.36529 117.847 10.688C118.551 11.9893 118.903 13.3973 118.903 14.912C118.903 15.168 118.892 15.4346 118.871 15.712C118.849 15.968 118.828 16.1813 118.807 16.352H105.847C105.932 17.2053 106.177 17.952 106.583 18.592C107.009 19.232 107.543 19.7226 108.183 20.064C108.844 20.384 109.548 20.544 110.295 20.544C111.148 20.544 111.948 20.3413 112.695 19.936C113.463 19.5093 113.985 18.9546 114.263 18.272L117.943 19.296C117.537 20.1493 116.951 20.9066 116.183 21.568C115.436 22.2293 114.551 22.752 113.527 23.136C112.503 23.4986 111.372 23.68 110.135 23.68ZM105.751 13.632H114.519C114.433 12.7786 114.188 12.0426 113.783 11.424C113.399 10.784 112.887 10.2933 112.247 9.95196C111.607 9.58929 110.892 9.40796 110.103 9.40796C109.335 9.40796 108.631 9.58929 107.991 9.95196C107.372 10.2933 106.86 10.784 106.455 11.424C106.071 12.0426 105.836 12.7786 105.751 13.632Z" fill="#F5F4F4"/>
<path d="M98.6299 23.36H94.3419V13.952C94.3419 12.6507 94.0859 11.68 93.5739 11.04C93.0832 10.4 92.4006 10.08 91.5259 10.08C91.0139 10.08 90.4699 10.2293 89.8939 10.528C89.3179 10.8267 88.7952 11.2427 88.3259 11.776C87.8779 12.288 87.5472 12.8853 87.3339 13.568V23.36H83.0459V0H87.3339V9.696C87.9526 8.62933 88.7952 7.79733 89.8619 7.2C90.9286 6.60267 92.0912 6.304 93.3499 6.304C94.4379 6.304 95.3232 6.496 96.0059 6.88C96.6886 7.24267 97.2219 7.744 97.6059 8.384C97.9899 9.00267 98.2566 9.70667 98.4059 10.496C98.5552 11.264 98.6299 12.064 98.6299 12.896V23.36Z" fill="#F5F4F4"/>
<path d="M80.8126 22.4959C80.4499 22.6452 80.0126 22.8159 79.5006 23.0079C78.9886 23.1999 78.4339 23.3492 77.8366 23.4559C77.2606 23.5839 76.6739 23.6479 76.0766 23.6479C75.2873 23.6479 74.5619 23.5092 73.9006 23.2319C73.2393 22.9545 72.7059 22.5172 72.3006 21.9199C71.9166 21.3012 71.7246 20.5012 71.7246 19.5199V9.88785H69.5166V6.59185H71.7246V1.15186H76.0126V6.59185H79.5326V9.88785H76.0126V18.0799C76.0339 18.6559 76.1939 19.0719 76.4926 19.3279C76.7913 19.5839 77.1646 19.7119 77.6126 19.7119C78.0606 19.7119 78.4979 19.6372 78.9246 19.4879C79.3513 19.3385 79.6926 19.2105 79.9486 19.1039L80.8126 22.4959Z" fill="#F5F4F4"/>
<path d="M51.3936 18.4C51.3936 17.312 51.6922 16.3626 52.2896 15.552C52.9082 14.72 53.7616 14.08 54.8496 13.632C55.9376 13.184 57.1856 12.96 58.5936 12.96C59.2976 12.96 60.0122 13.0133 60.7376 13.12C61.4629 13.2266 62.0922 13.3973 62.6256 13.632V12.736C62.6256 11.6693 62.3056 10.848 61.6656 10.272C61.0469 9.69596 60.1189 9.40796 58.8816 9.40796C57.9642 9.40796 57.0896 9.56796 56.2576 9.88796C55.4256 10.208 54.5509 10.6773 53.6336 11.296L52.2576 8.47996C53.3669 7.75462 54.4976 7.21062 55.6496 6.84796C56.8229 6.48529 58.0496 6.30396 59.3296 6.30396C61.7189 6.30396 63.5749 6.90129 64.8976 8.09596C66.2416 9.29062 66.9136 10.9973 66.9136 13.216V18.56C66.9136 19.008 66.9882 19.328 67.1376 19.52C67.3082 19.712 67.5749 19.8293 67.9376 19.872V23.36C67.5536 23.424 67.2016 23.4773 66.8816 23.52C66.5829 23.5626 66.3269 23.584 66.1136 23.584C65.2602 23.584 64.6096 23.392 64.1616 23.008C63.7349 22.624 63.4682 22.1546 63.3616 21.6L63.2656 20.736C62.5402 21.6746 61.6336 22.4 60.5456 22.912C59.4576 23.424 58.3482 23.68 57.2176 23.68C56.1082 23.68 55.1056 23.456 54.2096 23.008C53.3349 22.5386 52.6416 21.9093 52.1296 21.12C51.6389 20.3093 51.3936 19.4026 51.3936 18.4ZM61.8256 19.264C62.0602 19.008 62.2522 18.752 62.4016 18.496C62.5509 18.24 62.6256 18.0053 62.6256 17.792V16.096C62.1136 15.8826 61.5589 15.7226 60.9616 15.616C60.3642 15.488 59.7989 15.424 59.2656 15.424C58.1562 15.424 57.2389 15.6693 56.5136 16.16C55.8096 16.6293 55.4576 17.2586 55.4576 18.048C55.4576 18.4746 55.5749 18.88 55.8096 19.264C56.0442 19.648 56.3856 19.9573 56.8336 20.192C57.2816 20.4266 57.8149 20.544 58.4336 20.544C59.0736 20.544 59.7029 20.4266 60.3216 20.192C60.9402 19.936 61.4416 19.6266 61.8256 19.264Z" fill="#F5F4F4"/>
<path d="M41.166 23.68C39.822 23.68 38.606 23.456 37.518 23.008C36.43 22.5386 35.502 21.9093 34.734 21.12C33.966 20.3093 33.3687 19.392 32.942 18.368C32.5367 17.3226 32.334 16.224 32.334 15.072C32.334 13.472 32.686 12.0106 33.39 10.688C34.1153 9.36529 35.1393 8.30929 36.462 7.51996C37.806 6.70929 39.3847 6.30396 41.198 6.30396C43.0327 6.30396 44.6007 6.70929 45.902 7.51996C47.2033 8.30929 48.1953 9.36529 48.878 10.688C49.582 11.9893 49.934 13.3973 49.934 14.912C49.934 15.168 49.9233 15.4346 49.902 15.712C49.8807 15.968 49.8593 16.1813 49.838 16.352H36.878C36.9633 17.2053 37.2087 17.952 37.614 18.592C38.0406 19.232 38.574 19.7226 39.214 20.064C39.8753 20.384 40.5793 20.544 41.326 20.544C42.1793 20.544 42.9793 20.3413 43.726 19.936C44.494 19.5093 45.0167 18.9546 45.294 18.272L48.974 19.296C48.5687 20.1493 47.982 20.9066 47.214 21.568C46.4673 22.2293 45.582 22.752 44.558 23.136C43.534 23.4986 42.4033 23.68 41.166 23.68ZM36.782 13.632H45.55C45.4647 12.7786 45.2193 12.0426 44.814 11.424C44.43 10.784 43.918 10.2933 43.278 9.95196C42.638 9.58929 41.9233 9.40796 41.134 9.40796C40.366 9.40796 39.662 9.58929 39.022 9.95196C38.4033 10.2933 37.8913 10.784 37.486 11.424C37.102 12.0426 36.8673 12.7786 36.782 13.632Z" fill="#F5F4F4"/>
<path d="M10.144 0.704138H14.24L16.832 8.22414L19.456 0.704138H23.52L19.616 11.0401L22.496 18.2721L28.928 0.640137H33.728L24.64 23.3601H20.832L16.832 13.8241L12.864 23.3601H9.056L0 0.640137H4.736L11.2 18.2721L14.016 11.0401L10.144 0.704138Z" fill="#F5F4F4"/>
</svg>

<svg xmlns="http://www.w3.org/2000/svg" width="192" height="31" fill="none"><path fill="#202020" d="M184.281 23.68c-1.301 0-2.453-.288-3.456-.864a6.386 6.386 0 0 1-2.304-2.4v9.76h-4.288V6.592h3.744v2.88a6.975 6.975 0 0 1 2.432-2.304c.982-.576 2.102-.864 3.36-.864 1.131 0 2.166.224 3.104.672a7.442 7.442 0 0 1 2.496 1.888 8.482 8.482 0 0 1 1.632 2.752c.406 1.024.608 2.133.608 3.328 0 1.621-.32 3.093-.96 4.416-.618 1.323-1.482 2.379-2.592 3.168-1.088.768-2.346 1.152-3.776 1.152Zm-1.44-3.648c.662 0 1.259-.139 1.792-.416.534-.277.992-.65 1.376-1.12.406-.49.704-1.035.896-1.632.214-.619.32-1.259.32-1.92 0-.704-.117-1.355-.352-1.952a4.374 4.374 0 0 0-.96-1.568 4.453 4.453 0 0 0-1.504-1.088 4.295 4.295 0 0 0-1.824-.384c-.405 0-.821.075-1.248.224-.405.128-.8.32-1.184.576a5.155 5.155 0 0 0-1.024.896c-.277.341-.48.715-.608 1.12v3.936a6.559 6.559 0 0 0 1.024 1.696c.448.512.96.917 1.536 1.216a4.02 4.02 0 0 0 1.76.416ZM164 23.68c-1.301 0-2.453-.288-3.456-.864a6.386 6.386 0 0 1-2.304-2.4v9.76h-4.288V6.592h3.744v2.88a6.975 6.975 0 0 1 2.432-2.304c.981-.576 2.101-.864 3.36-.864 1.131 0 2.165.224 3.104.672a7.442 7.442 0 0 1 2.496 1.888 8.482 8.482 0 0 1 1.632 2.752c.405 1.024.608 2.133.608 3.328 0 1.621-.32 3.093-.96 4.416-.619 1.323-1.483 2.379-2.592 3.168-1.088.768-2.347 1.152-3.776 1.152Zm-1.44-3.648c.661 0 1.259-.139 1.792-.416.533-.277.992-.65 1.376-1.12.405-.49.704-1.035.896-1.632.213-.619.32-1.259.32-1.92 0-.704-.117-1.355-.352-1.952a4.374 4.374 0 0 0-.96-1.568 4.462 4.462 0 0 0-1.504-1.088 4.302 4.302 0 0 0-1.824-.384c-.405 0-.821.075-1.248.224-.405.128-.8.32-1.184.576a5.155 5.155 0 0 0-1.024.896c-.277.341-.48.715-.608 1.12v3.936a6.531 6.531 0 0 0 1.024 1.696c.448.512.96.917 1.536 1.216a4.02 4.02 0 0 0 1.76.416ZM139.044.64h4.48l8.352 22.72h-4.544l-2.112-5.664h-7.936l-2.08 5.664h-4.544L139.044.64Zm5.376 13.952-3.136-9.376-3.264 9.376h6.4Z"/><path fill="#F5F4F4" d="M131.499 10.304c-1.302 0-2.464.256-3.488.768-1.024.49-1.76 1.206-2.208 2.144V23.36h-4.288V6.592h3.936v3.584c.597-1.152 1.354-2.059 2.272-2.72.917-.661 1.888-1.024 2.912-1.088h.544c.128 0 .234.01.32.032v3.904ZM110.135 23.68c-1.344 0-2.56-.224-3.648-.672-1.088-.47-2.016-1.099-2.784-1.888a8.996 8.996 0 0 1-1.792-2.752 9.023 9.023 0 0 1-.608-3.296c0-1.6.352-3.061 1.056-4.384a8.258 8.258 0 0 1 3.072-3.168c1.344-.81 2.922-1.216 4.736-1.216 1.834 0 3.402.405 4.704 1.216a7.874 7.874 0 0 1 2.976 3.168 8.738 8.738 0 0 1 1.056 4.224c0 .256-.011.523-.032.8-.022.256-.043.47-.064.64h-12.96c.085.853.33 1.6.736 2.24.426.64.96 1.13 1.6 1.472.661.32 1.365.48 2.112.48.853 0 1.653-.203 2.4-.608.768-.427 1.29-.981 1.568-1.664l3.68 1.024a6.893 6.893 0 0 1-1.76 2.272c-.747.661-1.632 1.184-2.656 1.568-1.024.363-2.155.544-3.392.544Zm-4.384-10.048h8.768c-.086-.853-.331-1.59-.736-2.208a3.915 3.915 0 0 0-1.536-1.472 4.273 4.273 0 0 0-2.144-.544 4.21 4.21 0 0 0-2.112.544 4.215 4.215 0 0 0-1.536 1.472c-.384.619-.619 1.355-.704 2.208ZM98.63 23.36h-4.288v-9.408c0-1.301-.256-2.272-.768-2.912-.49-.64-1.173-.96-2.048-.96-.512 0-1.056.15-1.632.448a5.399 5.399 0 0 0-1.568 1.248 4.909 4.909 0 0 0-.992 1.792v9.792h-4.288V0h4.288v9.696A6.606 6.606 0 0 1 89.862 7.2a7.02 7.02 0 0 1 3.488-.896c1.088 0 1.973.192 2.656.576a4.029 4.029 0 0 1 1.6 1.504c.384.619.65 1.323.8 2.112.15.768.224 1.568.224 2.4V23.36ZM80.813 22.496c-.363.15-.8.32-1.312.512a9.482 9.482 0 0 1-1.664.448 8.089 8.089 0 0 1-1.76.192c-.79 0-1.515-.139-2.176-.416a3.56 3.56 0 0 1-1.6-1.312c-.384-.619-.576-1.419-.576-2.4V9.888h-2.208V6.592h2.208v-5.44h4.288v5.44h3.52v3.296h-3.52v8.192c.02.576.18.992.48 1.248.298.256.672.384 1.12.384.448 0 .885-.075 1.312-.224.426-.15.768-.277 1.024-.384l.864 3.392ZM51.394 18.4c0-1.088.298-2.037.896-2.848.618-.832 1.472-1.472 2.56-1.92 1.088-.448 2.336-.672 3.744-.672.704 0 1.418.053 2.144.16.725.107 1.354.277 1.888.512v-.896c0-1.067-.32-1.888-.96-2.464-.62-.576-1.547-.864-2.784-.864-.918 0-1.792.16-2.624.48-.832.32-1.707.79-2.624 1.408L52.258 8.48c1.109-.725 2.24-1.27 3.392-1.632a12.39 12.39 0 0 1 3.68-.544c2.389 0 4.245.597 5.568 1.792 1.344 1.195 2.016 2.901 2.016 5.12v5.344c0 .448.074.768.224.96.17.192.437.31.8.352v3.488c-.384.064-.736.117-1.056.16a5.564 5.564 0 0 1-.768.064c-.854 0-1.504-.192-1.952-.576a2.479 2.479 0 0 1-.8-1.408l-.096-.864a7.332 7.332 0 0 1-2.72 2.176c-1.088.512-2.198.768-3.328.768-1.11 0-2.112-.224-3.008-.672a5.562 5.562 0 0 1-2.08-1.888c-.491-.81-.736-1.717-.736-2.72Zm10.432.864c.234-.256.426-.512.576-.768.149-.256.224-.49.224-.704v-1.696a7.938 7.938 0 0 0-1.664-.48 8.107 8.107 0 0 0-1.696-.192c-1.11 0-2.027.245-2.752.736-.704.47-1.056 1.099-1.056 1.888 0 .427.117.832.352 1.216.234.384.576.693 1.024.928.448.235.98.352 1.6.352.64 0 1.269-.117 1.888-.352.618-.256 1.12-.565 1.504-.928ZM41.166 23.68c-1.344 0-2.56-.224-3.648-.672-1.088-.47-2.016-1.099-2.784-1.888a9.01 9.01 0 0 1-1.792-2.752 9.038 9.038 0 0 1-.608-3.296c0-1.6.352-3.061 1.056-4.384a8.262 8.262 0 0 1 3.072-3.168c1.344-.81 2.923-1.216 4.736-1.216 1.835 0 3.403.405 4.704 1.216a7.87 7.87 0 0 1 2.976 3.168 8.738 8.738 0 0 1 1.056 4.224c0 .256-.01.523-.032.8-.021.256-.043.47-.064.64h-12.96c.085.853.33 1.6.736 2.24.427.64.96 1.13 1.6 1.472.661.32 1.365.48 2.112.48.853 0 1.653-.203 2.4-.608.768-.427 1.29-.981 1.568-1.664l3.68 1.024a6.884 6.884 0 0 1-1.76 2.272c-.747.661-1.632 1.184-2.656 1.568-1.024.363-2.155.544-3.392.544Zm-4.384-10.048h8.768c-.085-.853-.33-1.59-.736-2.208a3.915 3.915 0 0 0-1.536-1.472 4.272 4.272 0 0 0-2.144-.544 4.21 4.21 0 0 0-2.112.544 4.22 4.22 0 0 0-1.536 1.472c-.384.619-.619 1.355-.704 2.208ZM10.144.704h4.096l2.592 7.52 2.624-7.52h4.064L19.616 11.04l2.88 7.232L28.928.64h4.8L24.64 23.36h-3.808l-4-9.536-3.968 9.536H9.056L0 .64h4.736L11.2 18.272l2.816-7.232L10.144.704Z"/></svg>
